Assets/Icons/interaction/social-share.svg

<svg enable-background="new 0 0 60 60" viewBox="0 0 60 60" xmlns="http://www.w3.org/2000/svg"><path d="m50 41.5c-2.78 0-5.25 1.35-6.8 3.42l-25.05-12.52c.22-.76.35-1.56.35-2.4 0-.83-.13-1.64-.35-2.4l25.05-12.52c1.55 2.07 4.02 3.42 6.8 3.42 4.69 0 8.5-3.81 8.5-8.5s-3.81-8.5-8.5-8.5-8.5 3.81-8.5 8.5c0 .83.13 1.64.35 2.4l-25.05 12.52c-1.55-2.07-4.02-3.42-6.8-3.42-4.69 0-8.5 3.81-8.5 8.5s3.81 8.5 8.5 8.5c2.78 0 5.25-1.35 6.8-3.42l25.05 12.52c-.22.76-.35 1.56-.35 2.4 0 4.69 3.81 8.5 8.5 8.5s8.5-3.81 8.5-8.5-3.81-8.5-8.5-8.5zm0-37c3.03 0 5.5 2.47 5.5 5.5s-2.47 5.5-5.5 5.5-5.5-2.47-5.5-5.5 2.47-5.5 5.5-5.5zm-40 31c-3.03 0-5.5-2.47-5.5-5.5s2.47-5.5 5.5-5.5 5.5 2.47 5.5 5.5-2.47 5.5-5.5 5.5zm40 20c-3.03 0-5.5-2.47-5.5-5.5s2.47-5.5 5.5-5.5 5.5 2.47 5.5 5.5-2.47 5.5-5.5 5.5z"/></svg>

<?xml version="1.0" encoding="utf-8"?>
<!-- Generator: Adobe Illustrator 21.1.0, SVG Export Plug-In . SVG Version: 6.00 Build 0)  -->
<svg version="1.1" id="eps" xmlns="http://www.w3.org/2000/svg" xmlns:xlink="http://www.w3.org/1999/xlink" x="0px" y="0px"
	 viewBox="0 0 60 60" style="enable-background:new 0 0 60 60;" xml:space="preserve">
<path d="M50,41.5c-2.78,0-5.25,1.35-6.8,3.42L18.15,32.4c0.22-0.76,0.35-1.56,0.35-2.4c0-0.83-0.13-1.64-0.35-2.4L43.2,15.08
	c1.55,2.07,4.02,3.42,6.8,3.42c4.69,0,8.5-3.81,8.5-8.5S54.69,1.5,50,1.5s-8.5,3.81-8.5,8.5c0,0.83,0.13,1.64,0.35,2.4L16.8,24.92
	c-1.55-2.07-4.02-3.42-6.8-3.42c-4.69,0-8.5,3.81-8.5,8.5s3.81,8.5,8.5,8.5c2.78,0,5.25-1.35,6.8-3.42L41.85,47.6
	c-0.22,0.76-0.35,1.56-0.35,2.4c0,4.69,3.81,8.5,8.5,8.5s8.5-3.81,8.5-8.5S54.69,41.5,50,41.5z M50,4.5c3.03,0,5.5,2.47,5.5,5.5
	s-2.47,5.5-5.5,5.5s-5.5-2.47-5.5-5.5S46.97,4.5,50,4.5z M10,35.5c-3.03,0-5.5-2.47-5.5-5.5s2.47-5.5,5.5-5.5s5.5,2.47,5.5,5.5
	S13.03,35.5,10,35.5z M50,55.5c-3.03,0-5.5-2.47-5.5-5.5s2.47-5.5,5.5-5.5s5.5,2.47,5.5,5.5S53.03,55.5,50,55.5z"/>
</svg>
